!!!COM: Vivaldi, Antonio
!!!OTL: Concerto a violino solo, No. 8
!!!XEN: Violin Concerto No. 8 in G minor
!!!OPR: Il Cimento dell'armonia e dell'inventione
!!!XEN: The Contest of Harmony and Invention
!!!OPS: Opus 8
!!!ONM: No. 8
!!!OMV: Movement 1.
!!!YEC: Copyright 1996, Center for Computer Assisted Research in the Humanities
!!!YEM: Rights to all derivative electronic formats reserved.
!!!YEM: Refer to licensing agreement for important restrictions.
!!!OMD: Allegro
**kern	**kern	**kern	**kern	**kern	**Bnum
*Icello	*Iviola	*Ivioln	*Ivioln	*Ivioln	*Icemba
*Icemba	*	*	*	*	*
*ICstr	*ICstr	*ICstr	*ICstr	*ICstr	*ICklav
*ICklav	*	*	*	*	*
!cello 	!viola 	!violino 2	!violino 1	!violino principale	!continuo
!basso continuo	!	!	!	!	!
*clefF4	*clefC3	*clefG2	*clefG2	*clefG2	*
*k[b-e-]	*k[b-e-]	*k[b-e-]	*k[b-e-]	*k[b-e-]	*k[b-e-]
*g:	*g:	*g:	*g:	*g:	*g:
*M4/4	*M4/4	*M4/4	*M4/4	*M4/4	*M4/4
*>Selfridge-Field[etc1,S14,etc2,S30,etc3,S33,etc4,S37,etc5,S85,etc6]	*>Selfridge-Field[etc1,S14,etc2,S30,etc3,S33,etc4,S37,etc5,S85,etc6]	*>Selfridge-Field[etc1,S14,etc2,S30,etc3,S33,etc4,S37,etc5,S85,etc6]	*>Selfridge-Field[etc1,S14,etc2,S30,etc3,S33,etc4,S37,etc5,S85,etc6]	*>Selfridge-Field[etc1,S14,etc2,S30,etc3,S33,etc4,S37,etc5,S85,etc6]	*>Selfridge-Field[etc1,S14,etc2,S30,etc3,S33,etc4,S37,etc5,S85,etc6]
*>Turin[etc1,T14,etc2,S30,etc3,T33,etc4,S37,etc5,T85,etc6]	*>Turin[etc1,T14,etc2,S30,etc3,T33,etc4,S37,etc5,T85,etc6]	*>Turin[etc1,T14,etc2,S30,etc3,T33,etc4,S37,etc5,T85,etc6]	*>Turin[etc1,T14,etc2,S30,etc3,T33,etc4,S37,etc5,T85,etc6]	*>Turin[etc1,T14,etc2,S30,etc3,T33,etc4,S37,etc5,T85,etc6]	*>Turin[etc1,T14,etc2,S30,etc3,T33,etc4,S37,etc5,T85,etc6]
*>Amsterdam[etc1,S14,etc2,A30,etc3,S33,etc4,A37,etc5,S85,etc6]	*>Amsterdam[etc1,S14,etc2,A30,etc3,S33,etc4,A37,etc5,S85,etc6]	*>Amsterdam[etc1,S14,etc2,A30,etc3,S33,etc4,A37,etc5,S85,etc6]	*>Amsterdam[etc1,S14,etc2,A30,etc3,S33,etc4,A37,etc5,S85,etc6]	*>Amsterdam[etc1,S14,etc2,A30,etc3,S33,etc4,A37,etc5,S85,etc6]	*>Amsterdam[etc1,S14,etc2,A30,etc3,S33,etc4,A37,etc5,S85,etc6]
*>etc1	*>etc1	*>etc1	*>etc1	*>etc1	*>etc1
8G\	8b-\	8bb-\	8bb-\	8bb-\	.
=1	=1	=1	=1	=1	=1
8G\L	8b-\L	8gg\L	8gg\L	8gg\L	.
8A\	8cc\	8gg\	8gg\	8gg\	.
8B-\	8dd\	8gg\	8gg\	8gg\	6
8c\J	8ee-\J	8aa\J	8aa\J	8aa\J	.
4d\	4a\	(4gg\	(4gg\	(4gg\	5 4
8d\L	8a\L	8ff#\L)	8ff#\L)	8ff#\L)	#
8e-\J	8g\J	8gg\J	8gg\J	8gg\J	.
=2	=2	=2	=2	=2	=2
8B-\L	8g\L	8dd\L	8dd\L	8dd\L	6
8B-\	8g\	8dd\	8dd\	8dd\	.
8B-\	8g\	8dd\	8dd\	8dd\	.
8G\J	8b-\J	8ee-\J	8ee-\J	8ee-\J	6 4
8A\L	8f#\L	(16ddP/	(16ddP/	(16ddP/	6\
.	.	16ccp\L)	16ccp\L)	16ccp\L)	.
8A\	8f#\	8cc\	8cc\	8cc\	.
8F#\	8a\	8cc\	8cc\	8cc\	6 5
8D\J	8f#\J	8dd\J	8dd\J	8dd\J	#
=3	=3	=3	=3	=3	=3
4G\	4d\	8b-/L	8b-/L	8b-/L	.
.	.	(16a/L	(16a/L	(16a/L	.
.	.	16b-/JJ)	16b-/JJ)	16b-/JJ)	.
4E-\	4g\	(16cc/LL	(16cc/LL	(16cc/LL	6
.	.	16b-/)	16b-/)	16b-/)	.
.	.	(16a/	(16a/	(16a/	.
.	.	16g/JJ)	16g/JJ)	16g/JJ)	.
8D\L	8f#\L	4.dd\	4.dd\	4.dd\	#
*strophe	*	*	*	*	*
*^	*	*	*	*	*
*^	*	*	*	*	*	*
*S/S	*S/T	*S/A	*	*	*	*	*
8En\	8En\	8E-\	8g\	.	.	.	.
*S/fin	*S/fin	*S/fin	*	*	*	*	*
*v	*v	*v	*	*	*	*	*
*S-	*	*	*	*	*
8F#\	8a\	.	.	.	6
8G\J	8d\J	8bb-\	8bb-\	8bb-\	.
=4	=4	=4	=4	=4	=4
8G\L	8b-\L	8gg\L	8gg\L	8gg\L	.
8A\	8cc\	8gg\	8gg\	8gg\	.
8B-\	8dd\	8gg\	8gg\	8gg\	6
8c\J	8ee-\J	8aa\J	8aa\J	8aa\J	.
4d\	4a\	(4gg\	(4gg\	(4gg\	5 4
8d\L	8a\L	8ff#\L)	8ff#\L)	8ff#\L)	#
8e-\J	8g\J	8gg\J	8gg\J	8gg\J	.
=5	=5	=5	=5	=5	=5
8B-\L	8g\L	8dd\L	8dd\L	8dd\L	6
8B-\	8g\	8dd\	8dd\	8dd\	.
8B-\	8g\	8dd\	8dd\	8dd\	.
8G\J	8b-\J	8ee-\J	8ee-\J	8ee-\J	6 4
8A\L	8f#\L	(16ddP/	(16ddP/	(16ddP/	6\
.	.	16ccp\L)	16ccp\L)	16ccp\L)	.
8A\	8f#\	8cc\	8cc\	8cc\	.
8F#\	8a\	8cc\	8cc\	8cc\	6 5
8D\J	8f#\J	8dd\J	8dd\J	8dd\J	.
=6	=6	=6	=6	=6	=6
4G\	4d\	8b-/L	8b-/L	8b-/L	.
.	.	(16a/L	(16a/L	(16a/L	.
.	.	16b-/JJ)	16b-/JJ)	16b-/JJ)	.
4E-\	4g\	(16cc/LL	(16cc/LL	(16cc/LL	6
.	.	16b-/)	16b-/)	16b-/)	.
.	.	(16a/	(16a/	(16a/	.
.	.	16g/JJ)	16g/JJ)	16g/JJ)	.
8D\L	4f#\	4dd\	4dd\	4dd\	#
8E-\	.	.	.	.	.
8D\	4r	8r	8r	8r	.
8C\J	.	16b-\LL	16b-\LL	16b-\LL	.
.	.	16cc\JJ	16cc\JJ	16cc\JJ	.
=7	=7	=7	=7	=7	=7
4.BB-/	4.fn\	16dd\LL	16dd\LL	16dd\LL	.
.	.	16cc\	16cc\	16cc\	.
.	.	16b-\	16b-\	16b-\	.
.	.	16a\JJ	16a\JJ	16a\JJ	.
.	.	16b-\LL	16b-\LL	16b-\LL	.
.	.	16cc\	16cc\	16cc\	.
8BB-/	8f\	16dd\	16dd\	16dd\	.
.	.	16ee-\JJ	16ee-\JJ	16ee-\JJ	.
8AA/L	8cc\L	8ff\L	8ff\L	8ff\L	6
8GG/	8b-\	8f\J	8f\J	8f\J	.
8AA/	8cc\	8r	8r	8r	.
8FF/J	8a\J	16cc\LL	16cc\LL	16cc\LL	.
.	.	16dd\JJ	16dd\JJ	16dd\JJ	.
=8	=8	=8	=8	=8	=8
4.C/	4.g\	16ee-\LL	16ee-\LL	16ee-\LL	.
.	.	16dd\	16dd\	16dd\	.
.	.	16cc\	16cc\	16cc\	.
.	.	16bn\JJ	16bn\JJ	16bn\JJ	.
.	.	16cc\LL	16cc\LL	16cc\LL	.
.	.	16dd\	16dd\	16dd\	.
8C/	8g\	16ee-\	16ee-\	16ee-\	.
.	.	16ff\JJ	16ff\JJ	16ff\JJ	.
8BB-/L	8dd\L	8gg\L	8gg\L	8gg\L	6
8AA/	8cc\	8g\J	8g\J	8g\J	.
8BB-/	8dd\	8r	8r	8r	.
8GG/J	8b-\J	16dd\LL	16dd\LL	16dd\LL	.
*	*	*	*	*strophe	*
*	*	*	*	*^	*
*	*	*	*	*^	*	*
*	*	*	*	*S/S	*S/T	*S/A	*
.	.	16een\JJ	16een\JJ	16een\JJ	16een\JJ	16ee-x\JJ	.
*	*	*	*	*S/fin	*S/fin	*S/fin	*
*	*	*	*	*v	*v	*v	*
*	*	*	*	*S-	*
=9	=9	=9	=9	=9	=9
4.D\	4.a\	16ff\LL	16ff\LL	16ff\LL	.
.	.	16een\	16een\	16een\	.
.	.	16dd\	16dd\	16dd\	.
.	.	16cc#\JJ	16cc#\JJ	16cc#\JJ	.
.	.	16dd\LL	16dd\LL	16dd\LL	.
.	.	16ee\	16ee\	16ee\	.
8D\	8a\	16ff\	16ff\	16ff\	.
.	.	16gg\JJ	16gg\JJ	16gg\JJ	.
8C#\L	4en\	8aa\L	8aa\L	8aa\L	6
8A\	.	8a\J	8a\J	8a\J	.
8F\	8a\L	8r	8r	8r	6
8D\J	8f\J	8bb-\	8bb-\	8bb-\	6
=10	=10	=10	=10	=10	=10
4En\	4c#\	(16aaP/	(16aaP/	(16aaP/	6\
.	.	16ggp\L)	16ggp\L)	16ggp\L)	.
.	.	8gg\	8gg\	8gg\	.
4C#/	4en\	8gg\	8gg\	8gg\	6 5
.	.	8aa\J	8aa\J	8aa\J	.
4D\	4f\	(16ggP/	(16ggP/	(16ggP/	.
.	.	16ffp\L)	16ffp\L)	16ffp\L)	.
.	.	8ff\	8ff\	8ff\	.
4BB-/	4d\	8ff\	8ff\	8ff\	6
.	.	8gg\J	8gg\J	8gg\J	.
=11	=11	=11	=11	=11	=11
4GG/	4b-\	(16ffP/	(16ffP/	(16ffP	b6
.	.	16ee-p\L)	16ee-p\L)	16ee-p\L)	.
.	.	8ee-\	8ee-\	8ee-\	.
4G\	4b-\	8ee-\	8ee-\	8ee-\	.
.	.	8dd\J	8dd\J	8dd\J	.
8A\L	4en\	8cc#\L	8cc#\L	8cc#\L	#
8G\	.	16b-x\L	16b-x\L	16b-x\L	.
.	.	16a\JJ	16a\JJ	16a\JJ	.
8F\	8a\L	8dd\L	8dd\L	8dd\L	6
8En\J	8g\J	8gg\J	8gg\J	8gg\J	.
=12	=12	=12	=12	=12	=12
8D\L	8a\	4ff\	4ff\	4ff\	.
8G\	4d\	.	.	.	.
8A\	.	4eent\	4eent\	4eent\	4
8AA\J	8c#\	.	.	.	#
8D\L	8f\L	4dd\	4dd\	4dd\	.
8En\	8g\	.	.	.	.
8F\	8a\	8r	8r	8r	6
8D\J	8f\J	8b-\	8b-\	8b-\	.
=13	=13	=13	=13	=13	=13
4En\	4en\	(16aP/	(16aP/	(16aP/	5
.	.	16gp/L)	16gp/L)	16gp/L)	.
.	.	8g/	8g/	8g/	.
4C#/	4e\	8g/	8g/	8g/	6
.	.	8a/J	8a/J	8a/J	.
4D\	4f\	(16gP/	(16gP/	(16gP/	.
.	.	16fp/L)	16fp/L)	16fp/L)	.
.	.	8f/	8f/	8f/	.
4BB-/	4d\	8f/	8f/	8f/	.
.	.	8g/J	8g/J	8g/J	.
*>S14	*>S14	*>S14	*>S14	*>S14	*>S14
!! Selfridge-Field edition.
=14	=14	=14	=14	=14	=14
4GG/	4B-/	(16fP/	(16fP/	(16fP/	b6
.	.	16e-p/L)	16e-p/L)	16e-p/L)	.
.	.	8e-/	8e-/	8e-/	.
4GG/	4B-/	8e-/	8e-/	8e-/	.
.	.	8d/J	8d/J	8d/J	.
8AA\L	8En\L	8c#/L	8c#/L	8c#/L	#
8A\	8en\	16B-/L	16B-/L	16B-/L	.
.	.	16A/JJ	16A/JJ	16A/JJ	.
8F\	8f\	8d/L	8d/L	8d/L	6
8En\J	8c#\J	8g/J	8g/J	8g/J	6\
*>T14	*>T14	*>T14	*>T14	*>T14	*>T14
!! Turin autograph.
=14	=14	=14	=14	=14	=14
4GG/	4B-/	(16fP/	(16fP/	(16fP/	b6
.	.	16e-p/L)	16e-p/L)	16e-p/L)	.
.	.	8e-/	8e-/	8e-/	.
4GG/	4B-/	8e-/	8e-/	8e-/	.
.	.	8d/J	8d/J	8d/J	.
8AA\L	8En\L	8c#/L	8c#/L	8c#/L	#
8A\	8en\	16Bn/L	16Bn/L	16Bn/L	.
.	.	16A/JJ	16A/JJ	16A/JJ	.
8F\	8f\	8d/L	8d/L	8d/L	6
8En\J	8c#\J	8g/J	8g/J	8g/J	6\
*>etc2	*>etc2	*>etc2	*>etc2	*>etc2	*>etc2
=15	=15	=15	=15	=15	=15
8D/L	4d\	4f/	4f/	4f/	.
8GG/J	.	.	.	.	.
4AA/	4c#\	4ent/	4ent/	4ent/	#
4D\	4d\	4d/	4d/	4d/	.
4r	4r	4r	4r	4r	.
=16	=16	=16	=16	=16	=16
4G\	1r	1r	1r	(16gg\LL	.
.	.	.	.	16aa\JJ	.
.	.	.	.	4bb-\	.
8r	.	.	.	.	.
8F#\	.	.	.	8aa\)	6
4G\	.	.	.	8gg\L	.
.	.	.	.	(16ff\L	.
.	.	.	.	16ee-\JJ)	.
4r	.	.	.	(16dd\LL	.
.	.	.	.	16cc\)	.
.	.	.	.	(16b-\	.
.	.	.	.	16a\JJ)	.
=17	=17	=17	=17	=17	=17
8G/L	1r	1r	1r	8g/L	.
8D/	.	.	.	8d/	.
8BB-/	.	.	.	8B-/	.
8GG/J	.	.	.	8G/J	.
4G\	.	.	.	(16gg\LL	.
.	.	.	.	16aa\JJ	.
.	.	.	.	4bb-\	.
8r	.	.	.	.	.
8F#\	.	.	.	8aa\)	6
=18	=18	=18	=18	=18	=18
4G\	1r	1r	1r	8gg\L	.
.	.	.	.	(16ff\L	.
.	.	.	.	16ee-\JJ)	.
4r	.	.	.	(16dd\LL	.
.	.	.	.	16cc\)	.
.	.	.	.	(16b-\	.
.	.	.	.	16a\JJ)	.
4.G\	.	.	.	8b-/L	b
.	.	.	.	8g/	.
.	.	.	.	8b-/	.
8G\	.	.	.	8cc#/J	4+
=19	=19	=19	=19	=19	=19
8F#\L	1r	1r	1r	4dd\	6
8En\	.	.	.	.	.
8F#\	.	.	.	4r	.
8D\J	.	.	.	.	.
8G\L	.	.	.	(16bb-\LL	.
.	.	.	.	16ccc\JJ	.
8A\	.	.	.	4.ddd\)	.
8B-\	.	.	.	.	.
8G\J	.	.	.	.	.
=20	=20	=20	=20	=20	=20
8c\L	1r	1r	1r	(16ee-\LL	b
.	.	.	.	16ff\JJ	.
8d\	.	.	.	4.gg\)	.
8e-\	.	.	.	.	.
8c\J	.	.	.	.	.
8F\L	.	.	.	(16aa\LL	.
.	.	.	.	16bb-\JJ	.
8G\	.	.	.	4.ccc\)	.
8A\	.	.	.	.	.
8F\J	.	.	.	.	.
=21	=21	=21	=21	=21	=21
8B-\L	1r	1r	1r	(16dd\LL	.
.	.	.	.	16ee-\JJ	.
8c\	.	.	.	4.ff\)	.
8d\	.	.	.	.	.
8B-\J	.	.	.	.	.
8E-\L	.	.	.	(16gg\LL	.
.	.	.	.	16aa\JJ)	.
8F\	.	.	.	4bb-\	.
8G\	.	.	.	.	.
8F\J	.	.	.	8aa\	.
=22	=22	=22	=22	=22	=22
4E-\	1r	1r	1r	16gg\LL	.
.	.	.	.	16aa\	.
.	.	.	.	16gg\	.
.	.	.	.	16ff\JJ	.
4G\	.	.	.	16ee-\LL	6
.	.	.	.	16dd\	.
.	.	.	.	16cc\	.
.	.	.	.	16b-\JJ	.
8F\L	.	.	.	8a/L	.
8E-\	.	.	.	8f/J	6 4 2
8D\	.	.	.	8r	6
8BB-\J	.	.	.	8f/	.
=23	=23	=23	=23	=23	=23
4E-\	1r	1r	1r	16g/LL	.
.	.	.	.	16e-/	.
.	.	.	.	16d/	.
.	.	.	.	16e-/JJ	.
4F\	.	.	.	16a/LL	.
.	.	.	.	16f/	.
.	.	.	.	16e-/	.
.	.	.	.	16f/JJ	.
4G\	.	.	.	16b-/LL	.
.	.	.	.	16g/	.
.	.	.	.	16f/	.
.	.	.	.	16g/JJ	.
4A\	.	.	.	16cc/LL	6
.	.	.	.	16a/	.
.	.	.	.	16g/	.
.	.	.	.	16a/JJ	.
=24	=24	=24	=24	=24	=24
4B-\	1r	1r	1r	16dd\LL	.
.	.	.	.	16b-\	.
.	.	.	.	16a\	.
.	.	.	.	16b-\JJ	.
4c\	.	.	.	16ee-\LL	.
.	.	.	.	16cc\	.
.	.	.	.	16b-\	.
.	.	.	.	16cc\JJ	.
8d\L	.	.	.	8ff\L	6
8c\	.	.	.	(16gg\L	.
.	.	.	.	16aa\JJ)	.
8d\	.	.	.	4bb-\	.
8B-\J	.	.	.	.	.
=25	=25	=25	=25	=25	=25
8d\L	1r	1r	1r	8ff\L	6
8c\	.	.	.	(16gg\L	.
.	.	.	.	16aa\JJ)	.
8d\	.	.	.	4bb-\	.
8B-\J	.	.	.	.	.
8A\	.	.	.	16cc\LL	6
.	.	.	.	16aa\	.
8r	.	.	.	16gg\	.
.	.	.	.	16aa\JJ	.
8G\	.	.	.	16b-\LL	.
.	.	.	.	16gg\	.
8r	.	.	.	16ff\	.
.	.	.	.	16gg\JJ	.
=26	=26	=26	=26	=26	=26
8F\	1r	1r	1r	16a\LL	.
.	.	.	.	16ff\	.
*	*	*	*	*strophe	*
*	*	*	*	*^	*
*	*	*	*	*^	*	*
*	*	*	*	*S/S	*S/A	*S/T	*
8r	.	.	.	16ee-\	16ee-\	16ee\	.
.	.	.	.	16ff\JJ	16ff\JJ	16ff\JJ	.
8E-\	.	.	.	16g\LL	16g\LL	16gg\LL	.
.	.	.	.	16ee-\	16ee-\	16ee\	.
8r	.	.	.	16dd\	16dd\	16dd\	.
.	.	.	.	16ee-\JJ	16ee-\JJ	16ee\	.
8D\	.	.	.	16f\LL	16f\LL	16f\LL	6
*	*	*	*	*S/fin	*S/fin	*S/fin	*
*	*	*	*	*v	*v	*v	*
*	*	*	*	*S-	*
.	.	.	.	16dd\	.
8r	.	.	.	16cc\	.
.	.	.	.	16dd\JJ	.
8C/	.	.	.	16e-/LL	.
.	.	.	.	16cc/	.
8r	.	.	.	16b-/	.
.	.	.	.	16cc/JJ	.
=27	=27	=27	=27	=27	=27
4BB-/	1r	1r	1r	(16d/LL	.
.	.	.	.	16b-/J	.
.	.	.	.	[8cc/J)	.
4r	.	.	.	8cc/L]	.
.	.	.	.	(16b-/L	.
.	.	.	.	16a/JJ)	.
4C/	.	.	.	(16e-/LL	.
.	.	.	.	16b-/J	.
.	.	.	.	[8cc/J)	.
4r	.	.	.	8cc/L]	.
.	.	.	.	(16b-/L	.
.	.	.	.	16a/JJ)	.
=28	=28	=28	=28	=28	=28
4BB-/	1r	1r	1r	(16d/LL	.
.	.	.	.	16b-/J	.
.	.	.	.	[8cc/J)	.
4r	.	.	.	8cc/L]	.
.	.	.	.	(16b-/L	.
.	.	.	.	16a/JJ)	.
4C/	.	.	.	(16e-/LL	.
.	.	.	.	16b-/J	.
.	.	.	.	[8cc/J)	.
4r	.	.	.	8cc/L]	.
.	.	.	.	(16b-/L	.
.	.	.	.	16a/JJ)	.
=29	=29	=29	=29	=29	=29
8BB-\L	1r	1r	1r	16b-\LL	.
.	.	.	.	16cc\	.
8B-\	.	.	.	16dd\	.
.	.	.	.	16ee-\JJ	.
8d\	.	.	.	8ff\L	6
8c\J	.	.	.	8bb-\J	.
8B-/L	.	.	.	8dd\L	.
8BB-/	.	.	.	16cc\L	.
.	.	.	.	16b-\JJ	.
8F/	.	.	.	4ccT\	4
8FF/J	.	.	.	.	3
*>S30	*>S30	*>S30	*>S30	*>S30	*>S30
!! Selfridge-Field edition.
=30	=30	=30	=30	=30	=30
8BB-/L	4r	4r	4r	4b-\	.
8C/	.	.	.	.	.
8D/	8r	8r	8r	8r	6
8C/J	8f\	16b-\LL	16b-\LL	16b-\LL	.
.	.	16cc\JJ	16cc\JJ	16cc\JJ	.
4.BB-/	4.f\	16dd\LL	16dd\LL	16dd\LL	.
.	.	16cc\	16cc\	16cc\	.
.	.	16b-\	16b-\	16b-\	.
.	.	16a\JJ	16a\JJ	16a\JJ	.
.	.	16b-\LL	16b-\LL	16b-\LL	.
.	.	16cc\	16cc\	16cc\	.
8BB-/	8f\	16dd\	16dd\	16dd\	.
.	.	16ee-\JJ	16ee-\JJ	16ee-\JJ	.
*>A30	*>A30	*>A30	*>A30	*>A30	*>A30
!! Amsterdam print.
=30	=30	=30	=30	=30	=30
8BB-/L	4r	4r	4r	16b-\LL	.
.	.	.	.	16dd\	.
8C/	.	.	.	16cc\	.
.	.	.	.	16b-\JJ	.
8D/	8r	8r	8r	8bb-\L	6
8C/J	8f\	16b-\LL	16b-\LL	16b-\L	.
.	.	16cc\JJ	16cc\JJ	16cc\JJ	.
4.BB-/	4.f\	16dd\LL	16dd\LL	16dd\LL	.
.	.	16cc\	16cc\	16cc\	.
.	.	16b-\	16b-\	16b-\	.
.	.	16a\JJ	16a\JJ	16a\JJ	.
.	.	16b-\LL	16b-\LL	16b-\LL	.
.	.	16cc\	16cc\	16cc\	.
8BB-/	8f\	16dd\	16dd\	16dd\	.
.	.	16ee-\JJ	16ee-\JJ	16ee-\JJ	.
*>etc3	*>etc3	*>etc3	*>etc3	*>etc3	*>etc3
=31	=31	=31	=31	=31	=31
8AA/L	8cc\L	8ff\L	8ff\L	8ff\L	6
8GG/	8b-\	8f\J	8f\J	8f\J	.
8AA/	8cc\	8r	8r	8r	.
8FF/J	8a\J	16cc\LL	16cc\LL	16cc\LL	.
.	.	16dd\JJ	16dd\JJ	16dd\JJ	.
4.C/	4.g\	16ee-\LL	16ee-\LL	16ee-\LL	.
.	.	16dd\	16dd\	16dd\	.
.	.	16cc\	16cc\	16cc\	.
.	.	16bn\JJ	16bn\JJ	16bn\JJ	.
.	.	16cc\LL	16cc\LL	16cc\LL	.
.	.	16dd\	16dd\	16dd\	.
8C/	8g\	16ee-\	16ee-\	16ee-\	.
.	.	16ff\JJ	16ff\JJ	16ff\JJ	.
=32	=32	=32	=32	=32	=32
8BB-/L	8dd\L	8gg\L	8gg\L	8gg\L	6
8AA/	8cc\	8g\J	8g\J	8g\J	.
8BB-/	8dd\	8r	8r	8r	.
8GG/J	8b-\J	16dd\LL	16dd\LL	16dd\LL	.
.	.	16een\JJ	16een\JJ	16een\JJ	.
4.D\	4.a\	16ff\LL	16ff\LL	16ff\LL	.
.	.	16ee\	16ee\	16ee\	.
.	.	16dd\	16dd\	16dd\	.
.	.	16cc#\JJ	16cc#\JJ	16cc#\JJ	.
.	.	16dd\LL	16dd\LL	16dd\LL	.
.	.	16ee\	16ee\	16ee\	.
8D\	8a\	16ff\	16ff\	16ff\	.
.	.	16gg\JJ	16gg\JJ	16gg\JJ	.
=33	=33	=33	=33	=33	=33
8C#/L	8a\L	8aa\L	8aa\L	8aa\L	6
8AA/J	8A\J	8a\J	8a\J	8a\J	.
8r	8r	8r	8r	8r	.
[8d\	8f\	8bb-\	8bb-\	8bb-\	.
8d\L]	8e\L	8gg#\L	8gg#\L	8gg#\L	6 4+ 2
8c#\J	8e\J	8aa\J	8aa\J	8aa\J	6
8r	8r	8r	8r	8r	.
[8cn\	8e\	8ccc\	8ccc\	8ccc\	.
=34	=34	=34	=34	=34	=34
8c\L]	8d\L	8ff#\L	8ff#\L	8ff#\L	6 4+ 2
8Bn\J	8d\J	8gg\J	8gg\J	8gg\J	6
8r	8r	8r	8r	8r	.
[8B-\	8d\	8bb-\	8bb-\	8bb-\	.
8B-\L]	8c\L	8een\L	8een\L	8een\L	6 n4 2
*>S33	*>S33	*>S33	*>S33	*>S33	*>S33
!! Selfridge-Field edition.
8A\J	8c\J	8ffn\J	8ffn\J	8ffn\J	6
*>T33	*>T33	*>T33	*>T33	*>T33	*>T33
!! Turin authograph.
8A\J	8c\J	8ff#\J	8ff#\J	8ff#\J	6
*>etc4	*>etc4	*>etc4	*>etc4	*>etc4	*>etc4
8r	8r	8r	8r	8r	.
8A\	8cc\	8ee-\	8ee-\	8ee-\	6 b5
=35	=35	=35	=35	=35	=35
8B-\L	8f\L	8dd\L	8dd\L	8dd\L	.
8D\	8f\	8bb-\	8bb-\	8bb-\	6
8E-\	8g\	8cc\	8cc\	8cc\	6 5
8F\J	8f\J	8aa\J	8aa\J	8aa\J	.
4BB-/	4d\	4bb-\	4bb-\	(16bb-\LL	.
.	.	.	.	32aa\L	.
.	.	.	.	32gg\J	.
.	.	.	.	16ff\)	.
.	.	.	.	16ee-\JJ	.
4r	4r	4r	4r	16dd\LL	.
.	.	.	.	16cc\	.
.	.	.	.	16dd\	.
.	.	.	.	16b-\JJ	.
=36	=36	=36	=36	=36	=36
4AA/	1r	1r	1r	(16ff\LL	.
.	.	.	.	32ee-\L	.
.	.	.	.	32dd\J	.
.	.	.	.	16cc\)	.
.	.	.	.	16b-\JJ	.
4r	.	.	.	16a/LL	.
.	.	.	.	16g/	.
.	.	.	.	16a/	.
.	.	.	.	16f/JJ	.
4BB-/	.	.	.	(16b-/LL	.
.	.	.	.	32a/L	.
.	.	.	.	32g/J	.
.	.	.	.	16f/)	.
.	.	.	.	16e-/JJ	.
4r	.	.	.	16d/LL	.
.	.	.	.	16c/	.
.	.	.	.	16d/	.
.	.	.	.	16B-/JJ	.
*>S37	*>S37	*>S37	*>S37	*>S37	*>S37
!! Selfridge-Field edition.
=37	=37	=37	=37	=37	=37
8AA/L	1r	1r	1r	4f/	6
8BB-/	.	.	.	.	.
8C/	.	.	.	4r	.
8BB-/J	.	.	.	.	.
4AA/	.	.	.	16f/LL	6
.	.	.	.	16g/	.
.	.	.	.	16a/	.
.	.	.	.	16b-/JJ	.
8r	.	.	.	16cc\LL	.
.	.	.	.	16dd\	.
8F\	.	.	.	16ee-\	.
.	.	.	.	16ff\JJ	.
=38	=38	=38	=38	=38	=38
4G\	1r	1r	1r	4bn\	n
[4BBn/	.	.	.	(4aa-\	b7
8BB/L]	.	.	.	8gg\L)	6
8C/	.	.	.	16ff\L	.
.	.	.	.	16ee-\JJ	.
8D/	.	.	.	8dd\L	.
8G/J	.	.	.	16cc\L	n
.	.	.	.	16b\JJ	.
=39	=39	=39	=39	=39	=39
4E-\	1r	1r	1r	16cc\LL	6
.	.	.	.	16dd\	.
.	.	.	.	16ee-\	.
.	.	.	.	16ff\JJ	.
4C/	.	.	.	16gg\LL	6 5
.	.	.	.	16aa-\	.
.	.	.	.	16bb-\	.
.	.	.	.	16ccc\JJ	.
4D\	.	.	.	4ff#\	#
[4F#\	.	.	.	(4eee-\	7
*>A37	*>A37	*>A37	*>A37	*>A37	*>A37
!! Amsterdam print.
=37	=37	=37	=37	=37	=37
8AA/L	1r	1r	1r	4f/	6
8BB-/	.	.	.	.	.
8C/	.	.	.	4r	.
8BB-/J	.	.	.	.	.
4AA/	.	.	.	8f/L	6
.	.	.	.	8a/J	.
8r	.	.	.	8cc\L	.
8F\	.	.	.	8ff\J	.
=38	=38	=38	=38	=38	=38
4G\	1r	1r	1r	4bn\	n
[4BBn/	.	.	.	(4aa-\	b7
8BB/L]	.	.	.	8gg\L)	6
8C/	.	.	.	16ff\L	.
.	.	.	.	16ee-\JJ	.
8D/	.	.	.	8dd\L	.
8G/J	.	.	.	16cc\L	n
.	.	.	.	16b\JJ	.
=39	=39	=39	=39	=39	=39
4E-\	1r	1r	1r	8cc\L	6
.	.	.	.	8ee-\J	.
4C/	.	.	.	8gg\L	6 5
.	.	.	.	8ccc\J	.
4D\	.	.	.	4ff#\	#
[4F#\	.	.	.	(4eee-\	7
*>etc5	*>etc5	*>etc5	*>etc5	*>etc5	*>etc5
=40	=40	=40	=40	=40	=40
8F#\L]	1r	1r	1r	8ddd\L)	6
8G\	.	.	.	16ccc\L	.
.	.	.	.	16bb-\JJ	.
8C\	.	.	.	8aa\L	.
8D\J	.	.	.	16gg\L	#
.	.	.	.	16ff#\JJ	.
4E-\	.	.	.	8gg\L	.
.	.	.	.	(16aa-\L	.
.	.	.	.	16gg\JJ)	.
*strophe	*	*	*	*	*
*^	*	*	*	*	*
*^	*	*	*	*	*	*
*S/S	*S/A	*S/T	*	*	*	*	*
4Fn\	4Fn\	4F#\	.	.	.	(16ffn\LL	.
*S/fin	*S/fin	*S/fin	*	*	*	*	*
*v	*v	*v	*	*	*	*	*
*S-	*	*	*	*	*
.	.	.	.	16ee-\)	.
.	.	.	.	(16dd\	.
.	.	.	.	16cc\JJ)	.
=41	=41	=41	=41	=41	=41
4GG/	1r	1r	1r	8bn/L	n
.	.	.	.	16G/L	.
.	.	.	.	16A/JJ	.
4r	.	.	.	(16Bn/LL	.
.	.	.	.	16A/)	.
.	.	.	.	(16B/	.
.	.	.	.	16G/JJ)	.
4GG/	.	.	.	8cc/L	6 4
.	.	.	.	(16G/L	.
.	.	.	.	16A/JJ)	.
4r	.	.	.	(16B/LL	.
.	.	.	.	16A/)	.
.	.	.	.	(16B/	.
.	.	.	.	16G/JJ)	.
=42	=42	=42	=42	=42	=42
4GG/	1r	1r	1r	8dd\L	n
.	.	.	.	(16G/L	.
.	.	.	.	16A/JJ)	.
4r	.	.	.	(16Bn/LL	.
.	.	.	.	16A/)	.
.	.	.	.	(16B/	.
.	.	.	.	16G/JJ)	.
4GG/	.	.	.	8ee-\L	6 4
.	.	.	.	(16G/L	.
.	.	.	.	16A/JJ)	.
4r	.	.	.	(16B/LL	.
.	.	.	.	16A/)	.
.	.	.	.	(16B/	.
.	.	.	.	16G/JJ)	.
=43	=43	=43	=43	=43	=43
4GG/	1r	1r	1r	8ff\L	7 5 n
.	.	.	.	(16G/L	.
.	.	.	.	16A/JJ)	.
4r	.	.	.	(16Bn/LL	.
.	.	.	.	16A/)	.
.	.	.	.	(16B/	.
.	.	.	.	16G/JJ)	.
8E-\	.	.	.	8gg\	6
4D\	.	.	.	4ff\	.
8C/	.	.	.	8ee-\	.
=44	=44	=44	=44	=44	=44
4F\	1r	1r	1r	(8dd-\L	b6
.	.	.	.	16cc\L	.
.	.	.	.	16bn\JJ	.
8E-\L	.	.	.	8cc\L	6
8D\J	.	.	.	8ff#\J)	#
4.E-\	.	.	.	(8gg\L	6
.	.	.	.	16cc\L	.
.	.	.	.	16b\JJ	.
.	.	.	.	8cc\L	.
8D\	.	.	.	8ff#\J)	#
=45	=45	=45	=45	=45	=45
8BBn/L	1r	1r	1r	8gg\L	6
8C/	.	.	.	16ff\L	.
.	.	.	.	16ee-\JJ	.
8D/	.	.	.	8dd\L	.
8E-/J	.	.	.	8cc\J	6
8F/L	.	.	.	4aa-\	6 5 b
8FF/	.	.	.	.	.
8G/	.	.	.	4bnt\	7 5 n
8GG/J	.	.	.	.	.
=46	=46	=46	=46	=46	=46
8C\L	8e-\L	4r	4r	(8bnP/	.
8D\	8f\	.	.	8ccp\)	.
8E-\	8g\	8r	8r	8r	6
8C\J	8e-\J	8ee-\	8ee-\	8ee-\	.
8E-\L	8g\L	8cc\L	8cc\L	8cc\L	6
8E-\	8g\	8cc\	8cc\	8cc\	.
8E-\	8g\	8cc\	8cc\	8cc\	.
8F\J	8a-\J	8dd\J	8dd\J	8dd\J	6 5 b
=47	=47	=47	=47	=47	=47
4G\	4d\	(4cc\	(4cc\	(4cc\	5 4
8G\L	8d\L	8bn\L)	8bn\L)	8bn\L)	n
8A-\J	8c\J	8cc\J	8cc\J	8cc\J	.
8E-\L	8c\L	8gg\L	8gg\L	8gg\L	6
8E-\	8c\	8gg\	8gg\	8gg\	.
8E-\	8c\	8gg\	8gg\	8gg\	.
8C\J	8e-\J	8aa-\J	8aa-\J	8aa-\J	b6
=48	=48	=48	=48	=48	=48
8D/L	8Bn/L	(16ggP/	(16ggP/	(16ggP/	n6
.	.	16ffp\L)	16ffp\L)	16ffp\L)	.
8D/	8B/	8ff\	8ff\	8ff\	.
8BBn/	8d/	8ff\	8ff\	8ff\	.
8GG/J	8B/J	8gg\J	8gg\J	8gg\J	.
4C/	4G/	8ee-\L	8ee-\L	8ee-\L	.
.	.	(16dd\L	(16dd\L	(16dd\L	.
.	.	16ee-\JJ)	16ee-\JJ)	16ee-\JJ)	.
4AA-/	4c\	(16ff\LL	(16ff\LL	(16ff\LL	6
.	.	16ee-\)	16ee-\)	16ee-\)	.
.	.	(16dd\	(16dd\	(16dd\	.
.	.	16cc\JJ)	16cc\JJ)	16cc\JJ)	.
=49	=49	=49	=49	=49	=49
8GG\L	8Bn\L	4gg\	4gg\	4gg\	.
8G\	8bn\	.	.	.	.
8Bn\	8dd\	8r	8r	8r	6
8G\J	8b\J	8gg\	8gg\	8gg\	.
8c\L	8g\L	(16ffP/	(16ffP/	(16ffP/	n
.	.	16eenp\L)	16eenp\L)	16eenp\L)	.
8C\	8en\	8ee\	8ee\	8ee\	.
8En\	8g\	8ee\	8ee\	8ee\	6
8C\J	8e\J	8bb-\J	8bb-\J	8bb-\J	7
=50	=50	=50	=50	=50	=50
8FF\L	8c\L	8bb-\L	8bb-\L	8bb-\L	5 4
8F\	8a-\	8aa-\	8aa-\	8aa-\	b
8A-\	8cc\	8f\	8f\	8f\	6
8F\J	8a-\J	8ff\J	8ff\J	8ff\J	.
8B-\L	8f\L	(16ee-P/	(16ee-P/	(16ee-P	.
.	.	16ddp\L)	16ddp\L)	16ddp\L)	.
8BB-\	8d\	8dd\	8dd\	8dd\	.
8D\	8f\	8dd\	8dd\	8dd\	6
8BB-\J	8d\J	8aa-\J	8aa-\J	8aa-\J	b7
=51	=51	=51	=51	=51	=51
8EE-\L	8B-\L	8aa-\L	8aa-\L	8aa-\L	5 b4
8E-\	8g\	8gg\	8gg\	8gg\	3
8G\	8b-\	8e-\	8e-\	8e-\	6
8E-\J	8g\J	8ee-\J	8ee-\J	8ee-\J	.
8E-\L	8e-\L	8g/L	8g/L	8g/L	.
8E-\	8e-\	8g/	8g/	8g/	.
8E-\	8e-\	8g/	8g/	8g/	.
8F\J	8f\J	8a-/J	8a-/J	8a-/J	.
=52	=52	=52	=52	=52	=52
8G\L	8g\L	8b-\L	8b-\L	8b-\L	.
8G\	8g\	8b-\	8b-\	8b-\	.
8G\	8g\	8b-\	8b-\	8b-\	.
8A-\J	8a-\J	8cc\J	8cc\J	8cc\J	.
8B-\L	8b-\L	8dd\L	8dd\L	8dd\L	.
8B-\	8b-\	8dd\	8dd\	8dd\	.
8B-\	8b-\	8dd\	8dd\	8dd\	.
8c\J	8cc\J	8ee-\J	8ee-\J	8ee-\J	6
=53	=53	=53	=53	=53	=53
4d\	4b-\	8ff\L	8ff\L	8ff\L	6
.	.	16ee-\L	16ee-\L	16ee-\L	.
.	.	16dd\JJ	16dd\JJ	16dd\JJ	.
4c\	8a-\L	8ee-\L	8ee-\L	8ee-\L	b6
.	8e-\J	8aa-\J	8aa-\J	8aa-\J	.
4B-\	4e-\	4gg\	4gg\	4gg\	6 4
4BB-/	4d\	4ffT\	4ffT\	4ffT\	5 3
=54	=54	=54	=54	=54	=54
4E-\	4e-\	4ee-\	4ee-\	8ee-\L	.
.	.	.	.	16dd\L	.
.	.	.	.	16cc\JJ	.
4r	4r	4r	4r	16b-/LL	.
.	.	.	.	16a-/	.
.	.	.	.	16g/	.
.	.	.	.	16f/JJ	.
4E-\	2r	2r	2r	16e-/LL	.
.	.	.	.	16B-/	.
.	.	.	.	16G/	.
.	.	.	.	16B-/JJ	.
4r	.	.	.	16e-/LL	.
.	.	.	.	16B-/	.
.	.	.	.	16G/	.
.	.	.	.	16B-/JJ	.
=55	=55	=55	=55	=55	=55
4E-\	1r	1r	1r	16e-/LL	.
.	.	.	.	16B-/	.
.	.	.	.	16G/	.
.	.	.	.	16B-/JJ	.
4r	.	.	.	16e-/LL	.
.	.	.	.	16f/	.
.	.	.	.	16g/	.
.	.	.	.	16f/JJ	.
4E-\	.	.	.	16e-/LL	.
.	.	.	.	16B-/	.
.	.	.	.	16G/	.
.	.	.	.	16B-/JJ	.
4r	.	.	.	16e-/LL	.
.	.	.	.	16B-/	.
.	.	.	.	16G/	.
.	.	.	.	16B-/JJ	.
=56	=56	=56	=56	=56	=56
4E-\	1r	1r	1r	16e-/LL	.
.	.	.	.	16B-/	.
.	.	.	.	16G/	.
.	.	.	.	16B-/JJ	.
4r	.	.	.	16e-/LL	.
.	.	.	.	16f/	.
.	.	.	.	16g/	.
.	.	.	.	16f/JJ	.
4E-\	.	.	.	16e-/LL	.
.	.	.	.	16d/	.
.	.	.	.	16e-/	.
.	.	.	.	16f/JJ	.
8D/L	.	.	.	16g/LL	.
.	.	.	.	16f/	.
8C/J	.	.	.	16g/	b6
.	.	.	.	16a-/JJ	.
=57	=57	=57	=57	=57	=57
8BB-\L	1r	1r	1r	4b-\	.
8B-\	.	.	.	.	.
8d\	.	.	.	4r	6
8B-\J	.	.	.	.	.
8e-\L	.	.	.	16gg\LL	.
.	.	.	.	16ee-\	.
8E-\J	.	.	.	16b-\	.
.	.	.	.	16ee-\JJ	.
8r	.	.	.	16gg\LL	.
.	.	.	.	16ee-\	.
8e-\	.	.	.	16b-\	.
.	.	.	.	16ee-\JJ	.
=58	=58	=58	=58	=58	=58
8A-\L	1r	1r	1r	16cc/LL	.
.	.	.	.	16a-/	.
8AA-\J	.	.	.	16e-/	.
.	.	.	.	16a-/JJ	.
8r	.	.	.	16cc/LL	.
.	.	.	.	16a-/	.
8A-\	.	.	.	16e-/	.
.	.	.	.	16a-/JJ	.
8f\L	.	.	.	16aa\LL	.
.	.	.	.	16ff\	.
8F\J	.	.	.	16cc\	.
.	.	.	.	16ff\JJ	.
8r	.	.	.	16aa\LL	.
.	.	.	.	16ff\	.
8f\	.	.	.	16cc\	.
.	.	.	.	16ff\JJ	.
=59	=59	=59	=59	=59	=59
8B-\L	1r	1r	1r	16dd/LL	.
.	.	.	.	16b-/	.
8BB-\J	.	.	.	16f/	.
.	.	.	.	16b-/JJ	.
8r	.	.	.	16dd/LL	.
.	.	.	.	16b-/	.
8B-\	.	.	.	16f/	.
.	.	.	.	16b-/JJ	.
8G/L	.	.	.	16bb-\LL	.
.	.	.	.	16gg\	.
8GG/J	.	.	.	16dd\	.
.	.	.	.	16gg\JJ	.
8r	.	.	.	16bb-\LL	.
.	.	.	.	16gg\	.
8G\	.	.	.	16dd\	.
.	.	.	.	16gg\JJ	.
=60	=60	=60	=60	=60	=60
8c\L	1r	1r	1r	16ee-\LL	.
.	.	.	.	16cc\	.
8C\J	.	.	.	16g\	.
.	.	.	.	16cc\JJ	.
8r	.	.	.	16ee-\LL	.
.	.	.	.	16cc\	.
8c\	.	.	.	16g\	.
.	.	.	.	16cc\JJ	.
8c\L	.	.	.	16ccc\LL	.
.	.	.	.	16gg\	.
8C\J	.	.	.	16ee-\	.
.	.	.	.	16gg\JJ	.
8r	.	.	.	16ccc\LL	.
.	.	.	.	16gg\	.
8c\	.	.	.	16ee-\	.
.	.	.	.	16gg\JJ	.
=61	=61	=61	=61	=61	=61
8d\L	1r	1r	1r	16ccc\LL	7 #
.	.	.	.	16ff#\	.
8D\J	.	.	.	16dd\	.
.	.	.	.	16ff#\JJ	.
8r	.	.	.	16ccc\LL	.
.	.	.	.	16ff#\	.
8d\	.	.	.	16dd\	.
.	.	.	.	16ff#\JJ	.
8G/L	.	.	.	16bb-\LL	.
.	.	.	.	16gg\	.
8GG/J	.	.	.	16dd\	.
.	.	.	.	16gg\JJ	.
8r	.	.	.	16bb-\LL	.
.	.	.	.	16gg\	.
8G\	.	.	.	16dd\	.
.	.	.	.	16gg\JJ	.
=62	=62	=62	=62	=62	=62
8d\L	1r	1r	1r	16aa\LL	#
.	.	.	.	16ff#\	.
8D\J	.	.	.	16dd\	.
.	.	.	.	16ff#\JJ	.
8r	.	.	.	16aa\LL	.
.	.	.	.	16ff#\	.
8d\	.	.	.	16dd\	.
.	.	.	.	16ff#\JJ	.
8G/L	.	.	.	16bb-\LL	.
.	.	.	.	16gg\	.
8GG/J	.	.	.	16dd\	.
.	.	.	.	16gg\JJ	.
8r	.	.	.	16bb-\LL	.
.	.	.	.	16gg\	.
8G\	.	.	.	16dd\	.
.	.	.	.	16gg\JJ	.
=63	=63	=63	=63	=63	=63
8D/L	1r	1r	1r	8aa\L	#
8C/	.	.	.	8dd\J	.
8BB-/	.	.	.	8r	.
8GG/J	.	.	.	(8dd\	.
8C/L	.	.	.	8ee-\L	.
8BB-/	.	.	.	8een\	6 n4
8AA/	.	.	.	8ff\	6
8D/J	.	.	.	8ff#\J)	#
=64	=64	=64	=64	=64	=64
8BB-/L	1r	1r	1r	(8gg\L	6
8AA/	.	.	.	8aa\	6\ 4
8GG/	.	.	.	8bb-\	.
8B-/J	.	.	.	8dd\J)	6
8A\L	.	.	.	(8cc/L	.
8G\	.	.	.	8b-/	.
8F#\	.	.	.	8a/	6
8En\J	.	.	.	8g/J)	6\
=65	=65	=65	=65	=65	=65
4D\	1r	1r	1r	(8f#/L	#
.	.	.	.	8en/	.
8r	.	.	.	8d/	.
8BB-/	.	.	.	8dd/J)	.
8C/L	.	.	.	(8ee-\L	.
8BB-/	.	.	.	8een\	6 n4
8AA/	.	.	.	8ff\	6
8D/J	.	.	.	8ff#\J)	#
=66	=66	=66	=66	=66	=66
8BB-/L	1r	1r	1r	(8gg\L	6
8AA/	.	.	.	8aa\	6\ 4
8GG/	.	.	.	8bb-\	.
8B-/J	.	.	.	8dd\J)	6
8A\L	.	.	.	(8cc/L	.
8G\	.	.	.	8b-/	.
8F#\	.	.	.	8a/	6
8En\J	.	.	.	8g/J)	6\
=67	=67	=67	=67	=67	=67
8D\L	1r	1r	1r	(8f#/L	#
8En\	.	.	.	8en/	.
8F#\	.	.	.	8d/)	6
8D\J	.	.	.	8aa/J	.
8G\L	.	.	.	16bb-\LL	.
.	.	.	.	16gg\	.
8F#\	.	.	.	16d\	6
.	.	.	.	16gg\JJ	.
8G\	.	.	.	16bb-\LL	.
.	.	.	.	16gg\	.
8GG\J	.	.	.	16d\	.
.	.	.	.	16gg\JJ	.
=68	=68	=68	=68	=68	=68
8d\L	1r	1r	1r	16aa\LL	#
.	.	.	.	16ff#\	.
8c\	.	.	.	16d\	6 4+ 2
.	.	.	.	16ff#\JJ	.
8d\	.	.	.	16aa\LL	.
.	.	.	.	16ff#\	.
8D\J	.	.	.	16d\	.
.	.	.	.	16ff#\JJ	.
8G\L	.	.	.	16bb-\LL	.
.	.	.	.	16gg\	.
8F#\	.	.	.	16d\	6
.	.	.	.	16gg\JJ	.
8G\	.	.	.	16bb-\LL	.
.	.	.	.	16gg\	.
8GG\J	.	.	.	16d\	.
.	.	.	.	16gg\JJ	.
=69	=69	=69	=69	=69	=69
8F#\L	1r	1r	1r	16ccc\LL	6 5
.	.	.	.	16aa\	.
8En\	.	.	.	16d\	.
.	.	.	.	16aa\JJ	.
8F#\	.	.	.	16ccc\LL	.
.	.	.	.	16aa\	.
8FF#\J	.	.	.	16d\	.
.	.	.	.	16aa\JJ	.
8G\L	.	.	.	16bb-\LL	.
.	.	.	.	16gg\	.
8F#\	.	.	.	16d\	6
.	.	.	.	16gg\JJ	.
8G\	.	.	.	16bb-\LL	.
.	.	.	.	16gg\	.
8GG\J	.	.	.	16d\	.
.	.	.	.	16gg\JJ	.
=70	=70	=70	=70	=70	=70
8d\L	1r	1r	1r	16aa\LL	#
.	.	.	.	16ff#\	.
8c\	.	.	.	16d\	6 4+ 2
.	.	.	.	16ff#\JJ	.
8d\	.	.	.	16aa\LL	.
.	.	.	.	16ff#\	.
8D\J	.	.	.	16d\	.
.	.	.	.	16ff#\JJ	.
8G\L	.	.	.	16bb-\LL	.
.	.	.	.	16gg\	.
8F#\	.	.	.	16d\	6
.	.	.	.	16gg\JJ	.
8G\	.	.	.	16bb-\LL	.
.	.	.	.	16gg\	.
8GG\J	.	.	.	16d\	.
.	.	.	.	16gg\JJ	.
=71	=71	=71	=71	=71	=71
8F#\L	1r	1r	1r	16ccc\LL	6 5
.	.	.	.	16aa\	.
8En\	.	.	.	16d\	.
.	.	.	.	16aa\JJ	.
8F#\	.	.	.	16ccc\LL	.
.	.	.	.	16aa\	.
8FF#\J	.	.	.	16d\	.
.	.	.	.	16aa\JJ	.
8G\L	.	.	.	16bb-\LL	.
.	.	.	.	16gg\	.
8F#\	.	.	.	16d\	6
.	.	.	.	16gg\JJ	.
8G\	.	.	.	16bb-\LL	.
.	.	.	.	16gg\	.
8GG\J	.	.	.	16d\	.
.	.	.	.	16gg\JJ	.
=72	=72	=72	=72	=72	=72
8D/L	1r	1r	1r	4aa\ 4ff#\ 4d\	#
8C/	.	.	.	.	.
8BB-/	.	.	.	8r	6
8GG/J	.	.	.	(8dd\	.
8C/L	.	.	.	8ee-\L	.
8BB-/	.	.	.	8een\	6 n4
8AA/	.	.	.	8ffn\	6
8D/J	.	.	.	8ff#\J)	#
=73	=73	=73	=73	=73	=73
8B-\L	1r	1r	1r	(8gg\L	6
8A\	.	.	.	8aa\J	.
8G\	.	.	.	[4bb-\)	.
8F\J	.	.	.	.	.
2E-\	.	.	.	8bb-\L]	.
.	.	.	.	(8ccc\	.
.	.	.	.	8aa\	.
.	.	.	.	8gg\J)	.
=74	=74	=74	=74	=74	=74
2D\	1r	1r	1r	(8ff#\L	#
.	.	.	.	8aa\	.
.	.	.	.	8ee-\	.
.	.	.	.	8dd\J)	.
2F#\	.	.	.	(8cc\L	7 5
.	.	.	.	8ee-\	.
.	.	.	.	8dd\	.
.	.	.	.	8cc\J	.
=75	=75	=75	=75	=75	=75
8G\L	2r	2r	2r	8b-\L)	.
16B-\L	.	.	.	8gg\	.
16c\JJ	.	.	.	.	.
8d\L	.	.	.	8d\	#
8D\J	.	.	.	8ff#\J	.
8G\L	8b-\L	8gg\L	8gg\L	8gg\L	.
8A\	8cc\	8gg\	8gg\	8gg\	.
8B-\	8dd\	8gg\	8gg\	8gg\	6
8c\J	8ee-\J	8aa\J	8aa\J	8aa\J	.
=76	=76	=76	=76	=76	=76
4d\	4a\	(4gg\	(4gg\	(4gg\	5 4
8d\L	8a\L	8ff#\L)	8ff#\L)	8ff#\L)	#
8e-\J	8g\J	8gg\J	8gg\J	8gg\J	.
8B-\L	8g\L	8dd\L	8dd\L	8dd\L	6
8B-\	8g\	8dd\	8dd\	8dd\	.
8B-\	8g\	8dd\	8dd\	8dd\	.
8G\J	8b-\J	8ee-\J	8ee-\J	8ee-\J	6
=77	=77	=77	=77	=77	=77
8A\L	8f#\L	(16ddP/	(16ddP/	(16ddP/	6\
.	.	16ccp\L)	16ccp\L)	16ccp\L)	.
8A\	8f#\	8cc\	8cc\	8cc\	.
8F#\	8a\	8cc\	8cc\	8cc\	6
8D\J	8f#\J	8dd\J	8dd\J	8dd\J	.
4G\	4d\	8b-/L	8b-/L	8b-/L	.
.	.	(16a/L	(16a/L	(16a/L	.
.	.	16b-/JJ)	16b-/JJ)	16b-/JJ)	.
4E-\	4g\	(16cc/LL	(16cc/LL	(16cc/LL	6
.	.	16b-/)	16b-/)	16b-/)	.
.	.	(16a/	(16a/	(16a/	.
.	.	16g/JJ)	16g/JJ)	16g/JJ)	.
=78	=78	=78	=78	=78	=78
8D\L	8f#\L	4dd\	4dd\	4dd\	#
8F#\	8a\	.	.	.	.
8G\	8b-\	8r	8r	8r	.
8GG\J	8g\J	8bb-\	8bb-\	8bb-\	.
8B-\L	8dd\L	(16aaP/	(16aaP/	(16aaP/	6
.	.	16ggp\L)	16ggp\L)	16ggp\L)	.
8B-\	8dd\	8gg\	8gg\	8gg\	.
8B-\	8dd\	8gg\	8gg\	8gg\	.
8c\J	8ee-\J	8aa\J	8aa\J	8aa\J	6
=79	=79	=79	=79	=79	=79
8A\L	8cc\L	(16ggP/	(16ggP/	(16ggP/	6
.	.	16ffp\L)	16ffp\L)	16ffp\L)	.
8A\	8cc\	8ff\	8ff\	8ff\	.
8A\	8cc\	8ff\	8ff\	8ff\	.
8B-\J	8dd\J	8gg\J	8gg\J	8gg\J	6
8G\L	8b-\L	(16ffP/	(16ffP/	(16ffP/	6
.	.	16ee-p\L)	16ee-p\L)	16ee-p\L)	.
8G\	8b-\	8ee-\	8ee-\	8ee-\	.
8G\	8b-\	8ee-\	8ee-\	8ee-\	.
8A\J	8cc\J	8ff\J	8ff\J	8ff\J	6
=80	=80	=80	=80	=80	=80
8F#\L	8a\L	(16ee-P/	(16ee-P/	(16ee-P	6
.	.	16ddp\L)	16ddp\L)	16ddp\L)	.
8F#\	8a\	8dd\	8dd\	8dd\	.
8F#\	8a\	8dd\	8dd\	8dd\	.
8G\J	8b-\J	8ee-\J	8ee-\J	8ee-\J	6
8F#\L	8a\L	(16ddP/	(16ddP/	(16ddP/	6 5
.	.	16ccp\L)	16ccp\L)	16ccp\L)	.
8F#\	8a\	8cc\	8cc\	8cc\	.
8F#\	8a\	8cc\	8cc\	8cc\	.
8D\J	8f#\J	8dd\J	8dd\J	8dd\J	#
=81	=81	=81	=81	=81	=81
8G\L	8d\L	8b-\L	8b-\L	8b-\L	.
16BB-\L	16d\L	8gg\	8gg\	8gg\	.
16C\JJ	16e-\JJ	.	.	.	.
8D/L	8A/L	8d\	8d\	8d\	#
8DD/J	8d/J	8ff#\J	8ff#\J	8ff#\J	.
8GG\L	8B-\L	4gg\	4gg\	4gg\	.
16G\L	16b-\L	.	.	.	.
16F#\JJ	16a\JJ	.	.	.	.
8G/L	8b-\L	8r	8r	8r	.
8GG/J	8B-\J	8bb-\	8bb-\	8bb-\	.
=82	=82	=82	=82	=82	=82
8B-\L	8dd\L	(16aaP/	(16aaP/	(16aaP/	6
.	.	16ggp\L)	16ggp\L)	16ggp\L)	.
8B-\	8dd\	8gg\	8gg\	8gg\	.
8B-\	8dd\	8gg\	8gg\	8gg\	.
8c\J	8ee-\J	8aa\J	8aa\J	8aa\J	6
8A\L	8cc\L	(16ggP/	(16ggP/	(16ggP/	6
.	.	16ffp\L)	16ffp\L)	16ffp\L)	.
8A\	8cc\	8ff\	8ff\	8ff\	.
8A\	8cc\	8ff\	8ff\	8ff\	.
8B-\J	8dd\J	8gg\J	8gg\J	8gg\J	6
=83	=83	=83	=83	=83	=83
8G\L	8b-\L	(16ffP/	(16ffP/	(16ffP/	6
.	.	16ee-p\L)	16ee-p\L)	16ee-p\L)	.
8G\	8b-\	8ee-\	8ee-\	8ee-\	.
8G\	8b-\	8ee-\	8ee-\	8ee-\	.
8A\J	8cc\J	8ff\J	8ff\J	8ff\J	6
8F#\L	8a\L	(16ee-P/	(16ee-P/	(16ee-P	6
.	.	16ddp\L)	16ddp\L)	16ddp\L)	.
8F#\	8a\	8dd\	8dd\	8dd\	.
8F#\	8a\	8dd\	8dd\	8dd\	.
8G\J	8b-\J	8ee-\J	8ee-\J	8ee-\J	6
=84	=84	=84	=84	=84	=84
8F#\L	8a\L	(16ddP/	(16ddP/	(16ddP/	6 5
.	.	16ccp\L)	16ccp\L)	16ccp\L)	.
8F#\	8a\	8cc\	8cc\	8cc\	.
8F#\	8a\	8cc\	8cc\	8cc\	.
8D\J	8f#\J	8dd\J	8dd\J	8dd\J	#
8G\L	8d\L	8b-\L	8b-\L	8b-\L	.
16BB-\L	16d\L	8gg\	8gg\	8gg\	6
16C\JJ	16e-\JJ	.	.	.	.
8D/L	8A/L	8d\	8d\	8d\	4
8DD/J	8d/J	8ff#\J	8ff#\J	8ff#\J	#
*>S85	*>S85	*>S85	*>S85	*>S85	*>S85
!! Selfridge-Field edition.
=85	=85	=85	=85	=85	=85
1GG;/	1B-;/	(2ff#P/	(2ff#P/	(2ff#P/	.
.	.	2ggp;\)	2ggp;\)	2ggp;\)	.
*>T85	*>T85	*>T85	*>T85	*>T85	*>T85
!! Turin autograph.
=85	=85	=85	=85	=85	=85
1GG;/	1B-;/	1gg;\	1gg;\	1gg;\	.
*>etc6	*>etc6	*>etc6	*>etc6	*>etc6	*>etc6
==|!	==|!	==|!	==|!	==|!	==|!
*-	*-	*-	*-	*-	*-
!!!CDT: 1678/3/4/-1741/7/28
!!!OCY: Italia
!!!ODE: Count Wenzeslaus von Morzin of Bohemia; Count Wenceslas of Morzin
!!!ODT: 1725///
!!!OPC: Venezia; Venice
!!!AGN: concerto
!!!AST: baroque
!!!AMT: simple quadruple
!!!PPR: Michel-Charles Le Ce`ne
!!!PC#: Le Cene No. 521
!!!PDT: 1725///
!!!PPP: Amsterdam
!!!SCT: RV 332
!!!SMA1: The cooperation of the following libraries is gratefully acknowledged:
!!!SMA2: Saechsische Landesbibliothek, Dresden; Biblioteca Nazionale
!!!SMA3: Universitaria, Turin; Henry Watson Music Library, Manchester.
!!!YOR: New York: Dover Publications, Inc. 1995
!!!AIN: cello cemba viola violn
!!!EEV: 1.0
!!!RDT: 1994/4/28/
!!!YER: 1996/10/31/
!!!YEP: Center for Computer Assisted Research in the Humanities
!!!YEN: United States of America
!!!EFL: 1/3
!!!ENC: Edmund Correia, Jr.
!!!EED: Eleanor Selfridge-Field
